X:1
T:Title
%%score { 1 | 2 }
L:1/8
Q:1/4=90
M:6/8
K:Bb
V:1 treble nm="Grand Piano"
V:2 bass 
V:1
 [DB][CA][DB] GBG | [DF]3 [B,D]3 | [DB][DB][DB] [FB][EA][DB] | [Fc]6 | %4
w: J.~P.~W. * * * * *||||
 [Fd][Fc][Fd] [Ff]2 [Fd]/[Fc]/ | [B,GB][B,EG][EFA] [DFB]3 | [Fd][Fe][Fd] cGA | [DB]6 | %8
w: ||||
 [B,D][CE][_D=E] [=DF][DB]c | d3 [Fd]3 | ded c3 | cdc [DB]3 | [B,D][CE][_D=E] [=DF][DB]c | %13
w: |||||
 d3 [Fd]3 |[M:13/16] dedcd3/2c |[M:3/4] [DB]6 |] %16
w: |||
V:2
 [B,,B,][B,,B,][B,,B,] [E,B,E][G,B,E][E,B,E] | [B,,B,]3 [B,,F,]3 | %2
 [B,,F,][B,,F,][B,,F,] [D,F,][C,F,][B,,B,] | [F,A,]6 | %4
 [B,,B,][B,,A,][B,,B,] [D,B,]2 [B,,B,]/[D,B,]/ | E,E,C, B,,3 | %6
 [B,,B,][C,A,][D,B,] [E,G,E][E,CE][F,CE] | [B,,B,]6 | [B,,F,][B,,F,][B,,F,] [B,,F,][B,,F,][F,A,E] | %9
 [B,F]3 [B,,B,]3 | [F,B,F][F,CF][F,B,F] [F,A,E]3 | [F,A,E][F,A,F][F,A,E] [B,,B,]3 | %12
 [B,,F,][B,,F,][B,,F,] [B,,F,][B,,F,][F,A,E] | [B,F]3 [B,,B,]3 | %14
[M:13/16] [F,B,F][F,CF][F,B,F][F,A,E][F,A,F]3/2[F,A,E] |[M:3/4] [B,,B,]6 |] %16

